X: 1358
T: Jack Dolan
R:Reel
N:Collected by McFadden
B:O'Neill's 1358
Z:Transcribed by Trish O'Neil
M:C|
L:1/8
K:G
e3d Bddg|edBc dBGB|efed Bddg|edgd BA (3Bcd:|
Tg2eg fded|gfgb agef|Tg2eg fded|BAGA (3Bcd ef|
Tg2bg fdef|gfgba2ga|bgaf gfed|BA (3Bcd eaag|]


